!!!COM: Hugo Wolf
!!!CNT: Deutscher
!!!TXO: Deutsche 
!!!OTL: Komm, Liebchen, Komm!
!!!ODT: 1889/01/25
!!!ONM: No. 44
!!!LYR: Johann Wolfgang von Goethe
!!!ENC: Brian Bice
!!!YOR: 45 Songs on Poems of Goethe and Eichendorff, Dover Publications, 1995
!!NB: Vocal melody and text only encoded.
**kern	**silbe
*clefG2	*
*k[b-e-a-d-]	*
*M6/8	*
=2	=2
{4.dd-	{Komm,
4cc	Lieb-
8b-	-chen,
=3	=3
4.e-	komm!
8r	.
8r	.
8a-	um-
=4	=4
[4b-	-win-
16b-]	|
16dd-	-de
4cc	mir
8b-	die
=5	=5
4a-	Mu2t
8e-}	-ze!}
4r	.
8r	.
=6	=6
8r	.
8r	.
{8cc	{aus
4ee-	dei-
8cc-	-ner
=7	=7
4b-	Hand
[8ccn	nur
8ccn]	|
8b-	ist
8e-	der
=8	=8
4.g	Dul-
4.f	-bend
=9	=9
2.e-}	scho2n.}
=11	=11
4r	.
8r	.
4r	.
{8b-	{Hat
=12	=12
4.cc	Ab-
4.ee-	-bas
=13	=13
4.f	doch,
8r	.
8r	.
8g	auf
=14	=14
4an	I-
8b-	-rans
4cc	ho2ch-
8ee-	-stem
=15	=15
4.ddn	Sit-
4dd-}	-ze,}
{8b-	{sein
=16	=16
4.ee-	Haupt
4.ff	nicht
=17	=17
4ee-	zier-
8cc	-li-
4a-	-cher
8cc	um-
=18	=18
4.e-	-win-
4.g	-den
=19	=19
[4.a-	sehn!
4a-]}	|}
8r	.
=20	=20
4r	.
8r	.
4r	.
{8cc	{Ein
=21	=21
4.ee-	Dul-
4.b-	-bend
=22	=22
4b-	war
8b-	das
[4.b-	Band,
=23	=23
4b-]	|
8b-	das
4b-	A-
8b-	-le-
=24	=24
4.b-	-xan-
4b-}	-dern}
{8b-	{in
=25	=25
4.b-	Schlei-
4.cc	-fen
=26	=26
[4.ddn	scho2n
4ddn]	|
8ddn	vom
=27	=27
4.cc#	Haup-
4.dd#	-te
=28	=28
4.cc#}	fiel,}
8r	.
8r	.
{8f#	{und
=29	=29
*k[f#c#g#d#a#]	*
4.f#	al-
4.ff#	-len
=30	=30
[4.ff#	Fol-
4ff#]	|
8g#	-ge-
=31	=31
4f#	-herr-
8b	-schern,
8r	.
8cc#	je-
8dd#	-nen
=32	=32
(4dd#	an-
8ee)	|
4.ee}	dern,}
=33	=33
8r	.
8r	.
{8ee	{als
[4.ee#	Ko2-
=34	=34
4ee#]	|
8ff#	-nig-
4dd#	-szier-
8b	-de
=35	=35
8r	.
8r	.
[8cc#	wohl-
4cc#]	|
8f#	-ge-
=36	=36
2.f#}	-fiel.}
=37	=37
4r	.
8r	.
4r	.
{8b	{Ein
=38	=38
*k[f#c#g#]	*
4.b	Dul-
4.f#	-bend
=39	=39
4.e#	ist's,
8r	.
8r	.
[8b	der
=40	=40
8b]	|
8b	un-
8b	-sern
4b	Kai-
8cc#	-ser
=41	=41
4.b	schmu2k-
4.a#}	-ket,}
=42	=42
8r	.
8r	.
{8an	{sie
4an	nen-
8an	-nen's
=43	=43
4.cc#	Kro-
4.cc#	-ne.
=44	=44
*k[b-e-]	*
4r	.
8r	.
4b-	Na-
8b-	-me
=45	=45
4a-	geht
8g	wohl
(4g-	hin!
8f	|
=46	=46
4.f)}	|}
4r	.
8r	.
=47	=47
8r	.
8r	.
{8f	{Ju-
4f	-wel
8ff	und
=48	=48
[4.ff	Per-
4ff]	|
8f	-le!
=49	=49
4dd	sei
8dd	das
4ee-	Aug
8ff	ent-
=50	=50
4.ff	-zu2k-
4.g}	-ket:}
=51	=51
8r	.
8r	.
{8g	{der
[4.gg	scho2n-
=52	=52
4gg]	|
8gg	-ste
[4.ff	Schmuck
=53	=53
4ff]	|
8dd	ist
[4.dd-	stets
=54	=54
4dd-]	|
8dd-	der
4cc	Mus-
8dd-	-se-
=55	=55
[2.ee-	lin.
=56	=56
2.ee-_	|
=57	=57
4.ee-]}	|}
4r	.
8r	.
=59	=59
*k[b-e-a-d-]	*
8r	.
8r	.
{8cc	{Und
[4.ee-	die-
=60	=60
4ee-]	|
8e-	-sen
4.e-	hier,
=61	=61
8r	.
8r	.
8a-	ganz
4b-	rein
8cc	und
=62	=62
4b-	sil-
8ee-	-ber-
[4.ee-	-strei-
=63	=63
4ee-]	|
8a-}	-fig,}
4r	.
8r	.
=64	=64
8r	.
8r	.
{8cc	{um-
4cc	-win-
8ee-	-de,
=65	=65
4b-	Lieb-
8cc	-chen,
8r	.
8b-	um
8e-	die
=66	=66
4.g	Stirn
4.f	um-
=67	=67
2.e-}	-her.}
=69	=69
4r	.
8r	.
{[4.dd-	{Was
=70	=70
4dd-]	|
[8cc	ist
4cc]	|
8ee-	denn
=71	=71
4f	Ho-
8b-	-heit?
4r	.
8r	.
=72	=72
4.an	Mir
8an	ist
8b-	sie
8cc	ge-
=73	=73
4dd-	-la2u-
8ddn}	-fig!}
4r	.
8r	.
=74	=74
{4.ee-	{Du
4ff	schaust
8gg-	mich
=75	=75
[2.ff	an,
=76	=76
8ff]	|
8r	.
8r	.
4.ff-	ich
=77	=77
4.ee-	bin
4.ffn	so
=78	=78
4.aa-	gross
4.gg	als
=79	=79
2.aa-}	Er.}
*-	*-
